docs/img/home.svg

<svg viewBox="0 0 24 24" xmlns="http://www.w3.org/2000/svg"><g fill="none" stroke="#999" stroke-linecap="round" stroke-linejoin="round"><path d="m15.5 23.5h-7v-6.5a3.5 3.5 0 0 1 3.5-3.5 3.5 3.5 0 0 1 3.5 3.5z"/><path d="m23.07 8.2-3.57-2.48v-5.22h-2v3.83l-5.5-3.83-11.07 7.7a1 1 0 0 0 -.43.8v1.5h3v12a1 1 0 0 0 1 1h15a1 1 0 0 0 1-1v-12h3v-1.5a1 1 0 0 0 -.43-.8z"/></g></svg>

<svg xmlns="http://www.w3.org/2000/svg" viewBox="0 0 24 24"><defs><style>.cls-1{fill:none;stroke:#999;stroke-linecap:round;stroke-linejoin:round;}</style></defs><g id="レイヤー_2" data-name="レイヤー 2"><g id="レイヤー_1-2" data-name="レイヤー 1"><g id="レイヤー_2-2" data-name="レイヤー 2"><g id="transport"><path class="cls-1" d="M15.5,23.5h-7V17A3.5,3.5,0,0,1,12,13.5h0A3.5,3.5,0,0,1,15.5,17Z"/><path class="cls-1" d="M23.07,8.2,19.5,5.72V.5h-2V4.33L12,.5.93,8.2A1,1,0,0,0,.5,9v1.5h3v12a1,1,0,0,0,1,1h15a1,1,0,0,0,1-1v-12h3V9A1,1,0,0,0,23.07,8.2Z"/></g></g></g></g></svg>
